assets/img/windows.svg

<?xml version="1.0" encoding="UTF-8" standalone="no"?>
<svg width="29px" height="26px" viewBox="0 0 29 26" version="1.1" xmlns="http://www.w3.org/2000/svg" xmlns:xlink="http://www.w3.org/1999/xlink" xmlns:sketch="http://www.bohemiancoding.com/sketch/ns">
    <!-- Generator: Sketch 3.2 (9961) - http://www.bohemiancoding.com/sketch -->
    <title>windows</title>
    <desc>Created with Sketch.</desc>
    <defs></defs>
    <g id="Page-1" stroke="none" stroke-width="1" fill="none" fill-rule="evenodd" sketch:type="MSPage">
        <g id="windows" sketch:type="MSLayerGroup" fill="#D3D7D9">
            <g id="layer1" sketch:type="MSShapeGroup">
                <path d="M15.920066,25.852135 C15.473571,25.769015 14.847318,25.611758 14.528393,25.502685 C13.633269,25.196551 12.400461,24.342817 12.041285,23.967919 L11.717693,23.630162 L13.0687,18.957265 C13.811753,16.387173 14.531011,14.482423 14.613036,14.400399 C14.734567,14.278868 14.954174,14.358979 15.799522,14.833213 C17.558641,15.820069 18.96504,16.286388 20.801072,16.157753 C21.93977,16.077973 22.435597,15.983895 24.062772,15.538863 C25.328398,15.192713 25.568697,15.233001 25.612171,15.798625 C25.637891,16.13328 23.421244,23.68589 23.113556,24.365915 C22.897988,24.842344 22.623665,25.014127 21.489385,25.382983 C19.628581,25.988098 17.578153,26.160823 15.920066,25.852135 L15.920066,25.852135 Z M8.710329,22.337509 C7.4339349,21.686954 6.9135998,21.617239 5.5218477,21.617239 C4.2417819,21.617239 3.6627866,21.716339 1.9729245,22.224682 C0.9253157,22.539821 0.7482331,22.564205 0.494272,22.428288 C0.3307201,22.340758 0.2057586,22.17075 0.2057586,22.035771 C0.2057586,21.90481 0.7901893,19.748447 1.5044934,17.243854 L2.7590341,12.866826 L3.635442,12.532157 C5.3509206,11.877076 6.4618145,11.659594 8.105698,11.657 C9.450461,11.6549 9.710679,11.68862 10.514282,11.969337 C11.597795,12.37028 12.599005,13.110349 13.12002,13.598512 C13.280666,13.749029 12.876893,14.976382 12.019707,17.924171 C11.348249,20.233255 10.721205,22.292116 10.626275,22.499417 C10.479379,22.820202 10.39727,22.87362 10.074889,22.858133 C9.866555,22.848123 9.252505,22.613844 8.710329,22.337509 L8.710329,22.337509 Z M18.501868,14.58338 C17.688053,14.367262 15.936709,13.490712 15.547381,13.159865 C15.451701,13.078555 15.279244,12.901256 15.164136,12.765858 C14.95992,12.52564 14.899428,12.714798 16.227547,8.112085 C17.1279,4.9918285 17.650744,3.36189 17.772126,3.2969279 C17.901429,3.2277269 18.269616,3.3784699 19.018771,3.8073272 C20.392273,4.5935954 21.311055,4.9368172 22.67599,5.0084601 C24.057887,5.0809931 25.201991,4.8959936 26.964757,4.3149738 C27.745181,4.0577408 28.455342,3.8747652 28.542892,3.9083615 C28.978895,4.0756712 28.872692,4.6449158 27.571136,9.116975 C26.866862,11.536819 26.320161,13.301586 26.248217,13.416787 C26.056892,13.723147 25.247449,14.081793 23.973246,14.424774 C22.398029,14.84878 19.78635,14.924488 18.501868,14.58338 L18.501868,14.58338 Z M12.393872,11.432983 C11.059271,10.740781 10.390861,10.529334 9.077674,10.460461 C7.823134,10.394661 6.1265105,10.665155 4.9218671,11.123018 C4.1785571,11.405537 3.6614445,11.413294 3.419151,11.145568 C3.2472384,10.955602 3.3348888,10.767073 4.5944681,6.4238858 L5.9555514,1.7307006 L6.7076729,1.4179494 C8.321944,0.7466947 9.272638,0.5680697 11.22317,0.5695365 C12.882329,0.5707865 13.08678,0.5948955 13.87828,0.8826582 C14.349923,1.0541317 14.919756,1.3950157 15.414652,1.6941933 C16.126768,2.1246856 16.328327,2.3074728 16.380928,2.5704725 C16.441218,2.871904 15.95718,4.4936288 14.200655,10.494829 C13.94427,11.370773 13.62213,11.889896 13.3378,11.885306 C13.29703,11.88461 12.872259,11.681102 12.393872,11.432983 L12.393872,11.432983 Z" id="path3097"></path>
            </g>
        </g>
    </g>
</svg>

<svg width="29" height="26" xmlns="http://www.w3.org/2000/svg">
  <path d="M15.92 25.852a12.168 12.168 0 0 1-1.392-.35c-.895-.305-2.128-1.16-2.487-1.534l-.323-.338 1.35-4.673c.744-2.57 1.463-4.475 1.545-4.557.122-.121.341-.041 1.187.433 1.759.987 3.165 1.453 5.001 1.325 1.139-.08 1.635-.174 3.262-.62 1.265-.345 1.506-.305 1.55.26.025.335-2.192 7.888-2.5 8.568-.215.476-.49.648-1.624 1.017-1.86.605-3.91.778-5.569.47zm-7.21-3.514c-1.276-.651-1.796-.72-3.188-.72-1.28 0-1.86.098-3.55.607-1.047.315-1.224.34-1.478.203-.163-.087-.288-.257-.288-.392 0-.131.584-2.288 1.298-4.792l1.255-4.377.876-.335c1.716-.655 2.827-.872 4.47-.875 1.345-.002 1.606.032 2.41.312 1.083.401 2.084 1.141 2.605 1.63.16.15-.243 1.377-1.1 4.325-.672 2.31-1.299 4.368-1.394 4.575-.147.321-.229.375-.551.36-.208-.01-.822-.245-1.365-.521zm9.792-7.755c-.814-.216-2.565-1.092-2.955-1.423a4.217 4.217 0 0 1-.383-.394c-.204-.24-.265-.051 1.064-4.654.9-3.12 1.423-4.75 1.544-4.815.13-.07.498.081 1.247.51 1.373.787 2.292 1.13 3.657 1.201 1.382.073 2.526-.112 4.289-.693.78-.257 1.49-.44 1.578-.407.436.168.33.737-.972 5.209-.704 2.42-1.25 4.185-1.323 4.3-.191.306-1 .665-2.275 1.008-1.575.424-4.187.5-5.471.158zm-6.108-3.15c-1.335-.692-2.003-.904-3.316-.973-1.255-.065-2.951.205-4.156.663-.743.283-1.26.29-1.503.023-.172-.19-.084-.379 1.175-4.722L5.956 1.73l.752-.313C8.322.747 9.273.568 11.223.57c1.66 0 1.864.025 2.655.313.472.171 1.042.512 1.537.811.712.43.913.613.966.876.06.302-.424 1.924-2.18 7.925-.257.876-.579 1.395-.863 1.39-.041 0-.466-.204-.944-.452z" fill="#D3D7D9" fill-rule="evenodd"/>
</svg>
